X: 100
M: 2/4
L: 1/16
K: A
ue2 | "1"a"3"c'"1"a"0"e caec | A"4"ecA .E2.c2 | dfBd c"4"eAc | BEGB eefg |
      "1"a"3"c'"1"a"0"e caec | A"4"ecA .E2.c2 | dfGB c"4"eAc | BEGB A2 :|
|:ua2 | gebg egbg |a"0"e"3"c'"1"a "0"e"1"ac'a | d'bc'a "2"b"2"gaf |e^def e=dcB|
"2"b"1"a"2"g"1"f "0"edcB |A2a2A2 :|


